!!!COM: Fux, Johann Joseph
!!!OMD: Gradus ad Parnassum Exercise
!!!YEC: CC0 1.0 Universal (Public Domain). Mark Gotham and FourScoreAndMore.org waive all rights to this document.
**kern	**kern	**kern	**kern
*part4	*part3	*part2	*part1
*staff4	*staff3	*staff2	*staff1
*I"4	*I"3	*I"2	*I"1
*I'Pno	*I'Pno	*I'Pno	*I'Pno
!!LO:PB:g=z
*clefF4	*clefGv2	*clefG2	*clefG2
*k[]	*k[]	*k[]	*k[]
!!LO:TX:omd:t=
*M4/4	*M4/4	*M4/4	*M4/4
=134	=134	=134	=134
!	!	!	!LO:TX:a:t=Fig. 174; Species&colon; 2; Modal final&colon; d; Cantus firmus&colon; 2
1D	1A	1d	2r
.	.	.	2f/
=135	=135	=135	=135
1D	1F	1f	2a/
.	.	.	2b\
=136	=136	=136	=136
1C	1G	1e	2cc\
.	.	.	2g/
=137	=137	=137	=137
1G	1G	1d	2b\
.	.	.	2dd\
=138	=138	=138	=138
1E	1G	1g	2ee\
.	.	.	2b\
=139	=139	=139	=139
1D	1A	1f	2dd\
.	.	.	2ff\
=140	=140	=140	=140
1AA	1c	1a	2ee\
.	.	.	2cc\
=141	=141	=141	=141
1C	1c	1g	2ee\
.	.	.	2cc\
=142	=142	=142	=142
1D	1F	1f	2a/
.	.	.	2dd\
=143	=143	=143	=143
1AA	1A	1e	1cc#X
=144	=144	=144	=144
1D	1A	1d	1dd
==	==	==	==
*-	*-	*-	*-
!!!software: music21 v.9.7.1
!!!software: music21 v.9.7.1
!!!software: MuseScore 3.4.2
!!!RDF**kern: > = above
!!!RDF**kern: < = below
